icon-svg/guacamole.svg

<svg xmlns="http://www.w3.org/2000/svg" fill="#44739e" viewBox="0 0 24 24"><path d="M12.232 17.03h-.071c-.62 0-1.246-.021-1.6-.063a12.9 12.9 0 0 1-3.6-.951 6.8 6.8 0 0 0 3.956 1.7c.228.028.456.056.509.064s.162.008.317.009c.632 0 1.683-.033 1.854-.061a6.985 6.985 0 0 0 3.187-1.272c.1-.071.229-.188.368-.315a13.5 13.5 0 0 1-3.3.822 15.7 15.7 0 0 1-1.62.067m.021-3.648h-.011c-.3 0-.6 0-.9-.013a10.9 10.9 0 0 1-1.753-.18 7.7 7.7 0 0 1-4.085-1.807 2.229 2.229 0 0 1-.778-1.7 1.76 1.76 0 0 1 .051-.422 1.4 1.4 0 0 0-.134.262 2.855 2.855 0 0 0 .056 1.5 3.01 3.01 0 0 1 .182.854c.066.561.07.565.316.774a11.22 11.22 0 0 0 5.51 2.035c.248.026.535.052.637.059.078 0 .21.006.36.006.563 0 1.363-.03 1.647-.063a12.09 12.09 0 0 0 5.214-1.734 2.42 2.42 0 0 0 .557-.454c0-.02.062-.252.12-.547.062-.317.143-.68.177-.8a3.94 3.94 0 0 0 .113-1 1.64 1.64 0 0 0-.089-.655 2.38 2.38 0 0 1-.048.731c-.349 1.339-2.079 2.44-4.629 2.945a13.6 13.6 0 0 1-2.385.225h-.131ZM11.07 2.118c-.11.02-.3.05-.467.072a9.35 9.35 0 0 0-2.988.932A9.77 9.77 0 0 0 3.141 7.6a9.32 9.32 0 0 0-.932 2.988c-.023.175-.054.369-.074.476 0 .019-.008.04-.011.053a6.8 6.8 0 0 0-.035.852v.071a6.8 6.8 0 0 0 .035.849c0 .012.007.033.01.051.021.107.052.3.075.477a9.32 9.32 0 0 0 .932 2.983 9.884 9.884 0 0 0 6.467 5.216 12.3 12.3 0 0 0 1.562.271c.1.01.2.022.288.03.112.008.282.012.464.012a6.9 6.9 0 0 0 .855-.045c.079-.016.307-.051.511-.077a9.36 9.36 0 0 0 2.988-.933 9.766 9.766 0 0 0 4.476-4.474 9.35 9.35 0 0 0 .932-2.988c.023-.176.054-.37.075-.477 0-.018.007-.039.01-.051a6.8 6.8 0 0 0 .035-.848v-.073a6.8 6.8 0 0 0-.035-.851c0-.013-.007-.034-.011-.052-.02-.108-.051-.3-.074-.477a9.35 9.35 0 0 0-.932-2.983 9.775 9.775 0 0 0-4.474-4.474 9.36 9.36 0 0 0-2.988-.936c-.17-.022-.357-.052-.467-.072l-.062-.013a6.6 6.6 0 0 0-.815-.035 6.6 6.6 0 0 0-.815.035c-.014.004-.039.008-.061.013M18.317 16a8.7 8.7 0 0 1-1.162 1.117 7.66 7.66 0 0 1-3.5 1.4c-.226.037-1.31.07-1.994.07h-.142c-.258 0-.459 0-.536-.016l-.5-.061a6.9 6.9 0 0 1-5.5-3.344c-.1-.184-.227-.41-.04-.614a.339.339 0 0 1 .287-.115.33.33 0 0 1 .054 0c.181-.033.364.1.541.237a8.56 8.56 0 0 0 1.191.686 12.1 12.1 0 0 0 3.571.963c.3.037.86.056 1.424.058s1.112-.02 1.407-.057a10.724 10.724 0 0 0 4.56-1.521.95.95 0 0 1 .487-.22.4.4 0 0 1 .084 0 .325.325 0 0 1 .3.112c.157.158.293.294-.532 1.305m1.841-7.08a2.12 2.12 0 0 1 .233 1.126 4.57 4.57 0 0 1-.14 1.2c-.032.117-.106.455-.164.751a4.36 4.36 0 0 1-.19.744 2.61 2.61 0 0 1-.795.718A12.35 12.35 0 0 1 14.36 15.2c-.274.046-.552.087-.833.119-.327.037-1.26.068-1.857.068h-.142c-.18 0-.329 0-.423-.009-.1-.007-.4-.035-.661-.061a11.834 11.834 0 0 1-5.906-2.2c-.423-.363-.48-.545-.561-1.236a2.42 2.42 0 0 0-.135-.672 3.516 3.516 0 0 1-.069-1.994 3.56 3.56 0 0 1 1.393-1.597 1.94 1.94 0 0 1 .724-.385h.033a.32.32 0 0 1 .1 0h.008a.332.332 0 0 1 .326.1c.112.113.262.266-.285 1.16L5.8 8.94a.978.978 0 0 0-.214.655 1.527 1.527 0 0 0 .568 1.19 7.13 7.13 0 0 0 3.7 1.606 10.13 10.13 0 0 0 1.656.169c.239.011.48.013.719.012a12.9 12.9 0 0 0 2.223-.207c2.229-.445 3.782-1.37 4.054-2.416a1.706 1.706 0 0 0-.037-.839c-.112-.243-.118-.295-.118-.358 0-.189.127-.3.318-.442a.77.77 0 0 1 .411-.188h.036a.7.7 0 0 1 .089.005c.006 0 .011 0 .018-.005a.416.416 0 0 1 .191.011 1.885 1.885 0 0 1 .744.787m-3.489-3.195c.116-.167.174-.216.308-.2a.5.5 0 0 1 .065 0 .58.58 0 0 1 .215.019 5.84 5.84 0 0 1 2.062 1.217c.125.152.134.205.062.351A3.94 3.94 0 0 1 18 8.254c-.253.155-.554.334-.669.4-.133.074-.185.1-.233.067A.116.116 0 0 1 17 8.73c-.059 0-.094-.045-.185-.192a.81.81 0 0 0-.251-.248.58.58 0 0 1-.264-.32c-.092-.193-.125-.232-.261-.306-.085-.046-.155-.1-.155-.131a8.32 8.32 0 0 1 .785-1.808m-4.655.048h.07a1.72 1.72 0 0 1 .68.146 3.05 3.05 0 0 0 1.041.17 3.98 3.98 0 0 1 1 .108 6.24 6.24 0 0 1 .791.566c0 .007-.037.1-.081.206a7.65 7.65 0 0 0-.323.92c0 .057.246.22.46.3.116.045.143.077.239.277a.97.97 0 0 0 .433.473c.174.12.227.23.285.594.016.1.032.179.045.23a13 13 0 0 1 1.256-.685l.01.009.026-.009c.011 0 .021.019.031.03a.3.3 0 0 1 .075-.03c.083.014.159.295.143.528a1.34 1.34 0 0 1-.5.912 3.54 3.54 0 0 1-1.1.752 10.27 10.27 0 0 1-3.706.846c-.257.016-.516.022-.775.022h-.064a10.92 10.92 0 0 1-4.521-.863c-.934-.441-1.551-1.069-1.611-1.639-.024-.232.047-.4.351-.841a3.73 3.73 0 0 0 .431-.801c.071-.169.125-.206.613-.426a3.52 3.52 0 0 0 1.107-.742 1.374 1.374 0 0 1 .853-.437 3.36 3.36 0 0 1 .541-.05 2.012 2.012 0 0 0 1.223-.355 1.133 1.133 0 0 1 .578-.171 2.7 2.7 0 0 1 .399-.04m.004-3.703"/></svg>

<?xml version="1.0" encoding="UTF-8"?>
<svg width="24px" fill="#44739e" height="24px" viewBox="0 0 24 24" version="1.1" xmlns="http://www.w3.org/2000/svg" xmlns:xlink="http://www.w3.org/1999/xlink">
            <path d="m 12.232,17.03 h -0.071 c -0.62,0 -1.246,-0.021 -1.6,-0.063 a 12.9,12.9 0 0 1 -3.6,-0.951 6.8,6.8 0 0 0 3.956,1.7 c 0.228,0.028 0.456,0.056 0.509,0.064 0.053,0.008 0.162,0.008 0.317,0.009 0.632,0 1.683,-0.033 1.854,-0.061 a 6.985,6.985 0 0 0 3.187,-1.272 c 0.1,-0.071 0.229,-0.188 0.368,-0.315 a 13.51,13.51 0 0 1 -3.3,0.822 15.681,15.681 0 0 1 -1.62,0.067 z m 0.021,-3.648 h -0.011 c -0.3,0 -0.6,0 -0.9,-0.013 A 10.9,10.9 0 0 1 9.589,13.189 7.7,7.7 0 0 1 5.504,11.382 2.229,2.229 0 0 1 4.726,9.682 1.76,1.76 0 0 1 4.777,9.26 1.386,1.386 0 0 0 4.643,9.522 a 2.855,2.855 0 0 0 0.056,1.5 3.014,3.014 0 0 1 0.182,0.854 c 0.066,0.561 0.07,0.565 0.316,0.774 a 11.222,11.222 0 0 0 5.51,2.035 c 0.248,0.026 0.535,0.052 0.637,0.059 0.078,0 0.21,0.006 0.36,0.006 0.563,0 1.363,-0.03 1.647,-0.063 a 12.093,12.093 0 0 0 5.214,-1.734 2.424,2.424 0 0 0 0.557,-0.454 c 0,-0.02 0.062,-0.252 0.12,-0.547 0.062,-0.317 0.143,-0.68 0.177,-0.8 a 3.942,3.942 0 0 0 0.113,-1 1.637,1.637 0 0 0 -0.089,-0.655 2.377,2.377 0 0 1 -0.048,0.731 c -0.349,1.339 -2.079,2.44 -4.629,2.945 a 13.578,13.578 0 0 1 -2.385,0.225 H 12.25 Z M 11.07,2.118 c -0.11,0.02 -0.3,0.05 -0.467,0.072 A 9.349,9.349 0 0 0 7.615,3.122 9.77,9.77 0 0 0 3.141,7.6 9.324,9.324 0 0 0 2.209,10.588 c -0.023,0.175 -0.054,0.369 -0.074,0.476 0,0.019 -0.008,0.04 -0.011,0.053 a 6.812,6.812 0 0 0 -0.035,0.852 v 0.071 a 6.765,6.765 0 0 0 0.035,0.849 c 0,0.012 0.007,0.033 0.01,0.051 0.021,0.107 0.052,0.3 0.075,0.477 a 9.324,9.324 0 0 0 0.932,2.983 9.884,9.884 0 0 0 6.467,5.216 12.309,12.309 0 0 0 1.562,0.271 c 0.1,0.01 0.2,0.022 0.288,0.03 0.112,0.008 0.282,0.012 0.464,0.012 a 6.924,6.924 0 0 0 0.855,-0.045 v 0 c 0.079,-0.016 0.307,-0.051 0.511,-0.077 a 9.36,9.36 0 0 0 2.988,-0.933 9.766,9.766 0 0 0 4.476,-4.474 9.349,9.349 0 0 0 0.932,-2.988 c 0.023,-0.176 0.054,-0.37 0.075,-0.477 0,-0.018 0.007,-0.039 0.01,-0.051 a 6.764,6.764 0 0 0 0.035,-0.848 v -0.073 a 6.789,6.789 0 0 0 -0.035,-0.851 c 0,-0.013 -0.007,-0.034 -0.011,-0.052 -0.02,-0.108 -0.051,-0.3 -0.074,-0.477 A 9.349,9.349 0 0 0 20.752,7.6 9.775,9.775 0 0 0 16.278,3.126 9.357,9.357 0 0 0 13.29,2.19 C 13.12,2.168 12.933,2.138 12.823,2.118 L 12.761,2.105 A 6.6,6.6 0 0 0 11.946,2.07 6.629,6.629 0 0 0 11.131,2.105 C 11.117,2.109 11.092,2.113 11.07,2.118 Z M 18.317,16 a 8.72,8.72 0 0 1 -1.162,1.117 7.661,7.661 0 0 1 -3.5,1.4 c -0.226,0.037 -1.31,0.07 -1.994,0.07 h -0.142 c -0.258,0 -0.459,0 -0.536,-0.016 l -0.5,-0.061 a 6.9,6.9 0 0 1 -5.5,-3.344 c -0.1,-0.184 -0.227,-0.41 -0.04,-0.614 a 0.339,0.339 0 0 1 0.287,-0.115 0.327,0.327 0 0 1 0.054,0 c 0.181,-0.033 0.364,0.1 0.541,0.237 a 8.564,8.564 0 0 0 1.191,0.686 12.105,12.105 0 0 0 3.571,0.963 c 0.3,0.037 0.86,0.056 1.424,0.058 0.564,0.002 1.112,-0.02 1.407,-0.057 a 10.724,10.724 0 0 0 4.56,-1.521 0.951,0.951 0 0 1 0.487,-0.22 0.388,0.388 0 0 1 0.084,0 0.325,0.325 0 0 1 0.3,0.112 c 0.157,0.158 0.293,0.294 -0.532,1.305 z m 1.841,-7.08 a 2.119,2.119 0 0 1 0.233,1.126 4.569,4.569 0 0 1 -0.14,1.2 c -0.032,0.117 -0.106,0.455 -0.164,0.751 a 4.361,4.361 0 0 1 -0.19,0.744 2.612,2.612 0 0 1 -0.795,0.718 12.351,12.351 0 0 1 -4.742,1.741 c -0.274,0.046 -0.552,0.087 -0.833,0.119 -0.327,0.037 -1.26,0.068 -1.857,0.068 h -0.142 c -0.18,0 -0.329,0 -0.423,-0.009 v 0 c -0.1,-0.007 -0.4,-0.035 -0.661,-0.061 a 11.834,11.834 0 0 1 -5.906,-2.2 C 4.115,12.754 4.058,12.572 3.977,11.881 A 2.419,2.419 0 0 0 3.842,11.209 3.516,3.516 0 0 1 3.773,9.215 3.558,3.558 0 0 1 5.166,7.618 1.94,1.94 0 0 1 5.89,7.233 c 0.012,0 0.021,0 0.033,0 v 0 a 0.321,0.321 0 0 1 0.1,0 h 0.008 a 0.332,0.332 0 0 1 0.326,0.1 C 6.469,7.446 6.619,7.599 6.072,8.493 L 5.8,8.94 a 0.978,0.978 0 0 0 -0.214,0.655 1.527,1.527 0 0 0 0.568,1.19 7.128,7.128 0 0 0 3.7,1.606 10.132,10.132 0 0 0 1.656,0.169 c 0.239,0.011 0.48,0.013 0.719,0.012 a 12.887,12.887 0 0 0 2.223,-0.207 c 2.229,-0.445 3.782,-1.37 4.054,-2.416 A 1.706,1.706 0 0 0 18.469,9.11 C 18.357,8.867 18.351,8.815 18.351,8.752 c 0,-0.189 0.127,-0.3 0.318,-0.442 A 0.772,0.772 0 0 1 19.08,8.122 c 0.01,0 0.02,0 0.03,0 h 0.006 a 0.673,0.673 0 0 1 0.089,0.005 c 0.006,0 0.011,0 0.018,-0.005 a 0.416,0.416 0 0 1 0.191,0.011 1.885,1.885 0 0 1 0.744,0.787 z M 16.669,5.725 c 0.116,-0.167 0.174,-0.216 0.308,-0.2 a 0.513,0.513 0 0 1 0.065,0 0.584,0.584 0 0 1 0.215,0.019 5.838,5.838 0 0 1 2.062,1.217 c 0.125,0.152 0.134,0.205 0.062,0.351 A 3.937,3.937 0 0 1 18,8.254 c -0.253,0.155 -0.554,0.334 -0.669,0.4 -0.133,0.074 -0.185,0.1 -0.233,0.067 A 0.116,0.116 0 0 1 17,8.73 c -0.059,0 -0.094,-0.045 -0.185,-0.192 A 0.814,0.814 0 0 0 16.564,8.29 0.579,0.579 0 0 1 16.3,7.97 C 16.208,7.777 16.175,7.738 16.039,7.664 15.954,7.618 15.884,7.564 15.884,7.533 a 8.325,8.325 0 0 1 0.785,-1.808 z m -4.655,0.048 h 0.07 a 1.718,1.718 0 0 1 0.68,0.146 3.046,3.046 0 0 0 1.041,0.17 3.977,3.977 0 0 1 1,0.108 6.235,6.235 0 0 1 0.791,0.566 c 0,0.007 -0.037,0.1 -0.081,0.206 a 7.649,7.649 0 0 0 -0.323,0.92 c 0,0.057 0.246,0.22 0.46,0.3 0.116,0.045 0.143,0.077 0.239,0.277 a 0.97,0.97 0 0 0 0.433,0.473 c 0.174,0.12 0.227,0.23 0.285,0.594 0.016,0.1 0.032,0.179 0.045,0.23 A 13.064,13.064 0 0 1 17.91,9.078 l 0.01,0.009 0.026,-0.009 c 0.011,0 0.021,0.019 0.031,0.03 a 0.3,0.3 0 0 1 0.075,-0.03 c 0.083,0.014 0.159,0.295 0.143,0.528 a 1.341,1.341 0 0 1 -0.5,0.912 3.541,3.541 0 0 1 -1.1,0.752 10.266,10.266 0 0 1 -3.706,0.846 c -0.257,0.016 -0.516,0.022 -0.775,0.022 H 12.05 A 10.921,10.921 0 0 1 7.529,11.275 C 6.595,10.834 5.978,10.206 5.918,9.636 5.894,9.404 5.965,9.236 6.269,8.795 A 3.73,3.73 0 0 0 6.7,7.994 C 6.771,7.825 6.825,7.788 7.313,7.568 A 3.515,3.515 0 0 0 8.42,6.826 1.374,1.374 0 0 1 9.273,6.389 3.357,3.357 0 0 1 9.814,6.339 2.012,2.012 0 0 0 11.037,5.984 1.133,1.133 0 0 1 11.615,5.813 2.736,2.736 0 0 1 12.014,5.773 Z M 11.944,21.93 Z M 12.018,2.07 Z"/>

</svg>
